images/item-team-img3.svg

<svg width="40" height="40" viewBox="0 0 40 40" fill="none" xmlns="http://www.w3.org/2000/svg">
<g id="success 2" clip-path="url(#clip0_0_218)">
<path id="Vector" d="M0.453308 37.3419L0.971827 38.509L19.5784 30.7939L22.8199 31.183L23.9867 34.7487L22.4308 36.24C21.8474 36.7585 21.6531 37.6011 21.9772 38.3792L22.6255 40L33.3872 35.786L32.8037 34.2301C32.5445 33.452 31.8313 32.9984 30.9886 32.9984H28.849L27.6822 30.2105L30.5347 28.7844C31.4422 28.3305 31.8313 27.2931 31.5071 26.3856L27.812 16.4666C27.4229 15.4293 26.3207 14.9753 25.2833 15.2995C25.2833 15.2995 25.2187 15.2995 25.2187 15.3644L22.4957 16.5312L22.1067 15.5587L23.598 13.8085C24.635 12.6413 25.2833 11.2153 25.478 9.65939L27.358 7.39032C28.5897 5.96392 28.3305 3.82463 26.9041 2.5926C26.6448 2.39823 26.3856 2.20387 26.1263 2.07408C25.4131 1.74993 24.6999 1.68503 23.9221 1.87972L23.7274 1.29599C23.4033 0.258949 22.2365 -0.259886 21.264 0.129161L7.58468 5.05635C6.54733 5.4454 6.02881 6.54733 6.41785 7.51979V7.58469L6.74201 8.42736C5.05635 9.20545 4.27825 11.1504 4.86167 12.836C5.31561 14.1326 6.48243 15.0402 7.84394 15.2346L10.8911 15.5587C12.1228 16.4666 13.6138 17.05 15.1051 17.1795L17.2444 17.3742L17.6334 18.3466C17.1795 18.6059 16.8553 19.0598 16.7259 19.6432L16.2719 21.8474L0.453308 28.2656L0.907249 29.4973L9.98354 25.8671L12.1877 32.4796L0.453308 37.3419ZM31.5071 34.6192L31.6369 35.0079L23.3384 38.3144L23.144 37.9253C23.0791 37.666 23.144 37.4068 23.2738 37.2124L25.478 35.1377L28.2656 34.2301H30.8588C31.183 34.2301 31.3777 34.3596 31.5071 34.6192ZM27.4229 33.063L25.089 33.8411L24.2463 31.3777C24.635 31.4422 24.9592 31.3777 25.2833 31.183L26.3856 30.6645L27.4229 33.063ZM25.6724 16.3368C25.9965 16.207 26.3856 16.3368 26.5154 16.661L27.0339 18.0225L23.8572 19.0598L24.2463 20.2916L27.4229 19.2542L28.2007 21.3289L25.1539 22.3659L25.5429 23.598L28.6546 22.5606L29.4327 24.635L26.4505 25.6075L26.8395 26.8395L29.8864 25.8022L30.2105 26.6448C30.3403 26.969 30.2105 27.2931 29.8864 27.4229L24.7648 29.9513C24.635 30.0162 24.5055 30.0162 24.3758 30.0162L19.9674 29.4973L17.5685 22.3014L18.0225 19.9025C18.0874 19.7081 18.2168 19.5135 18.4115 19.4486L25.6724 16.3368ZM25.6075 3.24091C26.6448 3.69485 27.1637 4.92657 26.7097 6.02881C26.6448 6.22318 26.5154 6.35297 26.3856 6.54733L25.6075 7.51979C25.5429 6.87149 25.4131 6.28807 25.2187 5.63977L24.3758 3.11143C24.8297 3.04654 25.2187 3.11143 25.6075 3.24091ZM6.15828 12.5119C5.76955 11.4096 6.22317 10.2428 7.26053 9.72397L8.16809 11.9285C8.49225 12.7062 8.94619 13.4843 9.46471 14.1326L8.1032 14.0029C7.19563 13.938 6.41786 13.3546 6.15828 12.5119ZM15.3644 15.9478C12.7062 15.6885 10.3723 14.0029 9.39981 11.4745L7.71447 7.19564C7.58468 6.87149 7.71447 6.48244 8.03862 6.35297L21.7176 1.42577C21.9123 1.36088 22.0418 1.36088 22.2365 1.42577C22.3659 1.49067 22.4957 1.62014 22.5606 1.81482L23.9867 6.09371C24.7648 8.49225 24.2463 11.0855 22.6255 12.9655L20.6157 15.2995L21.1991 16.8553L18.8652 17.8278L18.2168 16.207L15.3644 15.9478ZM11.2153 25.3482L12.7062 24.7648L14.327 29.692L15.5587 29.303L13.8734 24.2463L16.4666 23.2089L18.6708 29.7569L13.4194 31.9611L11.2153 25.3482Z" fill="#1E8E31"/>
<path id="Vector_2" d="M32.4798 11.346V11.9943H33.7764V11.346C33.7764 9.53082 35.2028 8.10442 37.018 8.10442V6.80781C35.2028 6.80781 33.7764 5.38172 33.7764 3.56628V2.91797H32.4798V3.56628C32.4798 5.38172 31.0537 6.80781 29.2383 6.80781V8.10442C31.0537 8.10442 32.4798 9.53082 32.4798 11.346ZM33.1281 5.90024C33.5172 6.54855 34.0357 7.06738 34.684 7.45611C34.0357 7.84516 33.5172 8.364 33.1281 9.0123C32.7391 8.364 32.2206 7.84516 31.5722 7.45611C32.2206 7.06738 32.7391 6.54855 33.1281 5.90024Z" fill="#1E8E31"/>
<path id="Vector_3" d="M3.95442 24.3108V24.9591H5.25104V24.3108C5.25104 22.4957 6.67744 21.0693 8.49257 21.0693V19.7727C6.67744 19.7727 5.25104 18.3466 5.25104 16.5311V15.8828H3.95442V16.5311C3.95442 18.3466 2.52834 19.7727 0.712891 19.7727V21.0693C2.52834 21.0693 3.95442 22.4957 3.95442 24.3108ZM4.60273 18.8651C4.99178 19.5134 5.5103 20.0322 6.1586 20.421C5.5103 20.81 4.99178 21.3288 4.60273 21.9771C4.21368 21.3288 3.69516 20.81 3.04686 20.421C3.69516 20.0322 4.21368 19.5134 4.60273 18.8651Z" fill="#1E8E31"/>
<path id="Vector_4" d="M36.3702 16.5311V15.8828H35.0736V16.5311C35.0736 18.3466 33.6475 19.7727 31.832 19.7727V21.0693C33.6475 21.0693 35.0736 22.4957 35.0736 24.3108V24.9591H36.3702V24.3108C36.3702 22.4957 37.7966 21.0693 39.6117 21.0693V19.7727C37.7966 19.7727 36.3702 18.3466 36.3702 16.5311ZM35.7219 21.9771C35.3328 21.3288 34.8143 20.81 34.166 20.421C34.8143 20.0322 35.3328 19.5134 35.7219 18.8651C36.1109 19.5134 36.6294 20.0322 37.2777 20.421C36.6294 20.81 36.1109 21.3288 35.7219 21.9771Z" fill="#1E8E31"/>
<path id="Vector_5" d="M19.7079 11.5407L20.6155 12.4483C24.1812 8.88258 20.8747 3.43687 20.6804 3.24219L19.5781 3.95539C19.643 3.95539 22.5604 8.68822 19.7079 11.5407Z" fill="#1E8E31"/>
</g>
<defs>
<clipPath id="clip0_0_218">
<rect width="40" height="40" fill="white"/>
</clipPath>
</defs>
</svg>

<svg xmlns="http://www.w3.org/2000/svg" width="40" height="40" fill="none"><g fill="#1E8E31" clip-path="url(#a)"><path d="m.453 37.342.519 1.167 18.606-7.715 3.242.389 1.167 3.566-1.556 1.491c-.584.518-.778 1.361-.454 2.14l.648 1.62 10.762-4.214-.583-1.556c-.26-.778-.973-1.232-1.815-1.232h-2.14l-1.167-2.787 2.853-1.427a1.948 1.948 0 0 0 .972-2.398l-3.695-9.92c-.39-1.037-1.491-1.49-2.529-1.167 0 0-.064 0-.064.065l-2.723 1.167-.39-.972 1.492-1.75a7.63 7.63 0 0 0 1.88-4.15l1.88-2.269c1.232-1.426.973-3.565-.454-4.797-.26-.195-.518-.39-.778-.519a3.221 3.221 0 0 0-2.204-.194l-.195-.584C23.403.259 22.237-.26 21.264.129L7.584 5.056c-1.037.39-1.555 1.491-1.166 2.464v.065l.324.842c-1.686.778-2.464 2.723-1.88 4.409.454 1.297 1.62 2.204 2.982 2.399l3.047.324c1.232.908 2.723 1.491 4.214 1.62l2.14.195.388.973c-.453.259-.778.713-.907 1.296l-.454 2.204L.453 28.266l.454 1.231 9.077-3.63 2.204 6.613L.453 37.342Zm31.054-2.723.13.389-8.299 3.306-.194-.389a.899.899 0 0 1 .13-.713l2.204-2.074 2.788-.908h2.593c.324 0 .519.13.648.39Zm-4.084-1.556-2.334.778-.843-2.463c.389.064.713 0 1.037-.195l1.103-.518 1.037 2.398Zm-1.75-16.726c.324-.13.713 0 .842.324l.519 1.361-3.177 1.038.39 1.232 3.176-1.038.778 2.075-3.047 1.037.389 1.232 3.112-1.037.778 2.074-2.982.973.389 1.232 3.046-1.038.325.843c.13.324 0 .648-.325.778l-5.121 2.528c-.13.065-.26.065-.39.065l-4.408-.519-2.398-7.196.454-2.398c.064-.195.194-.39.389-.454l7.26-3.112ZM25.607 3.24c1.037.454 1.556 1.686 1.102 2.788-.065.194-.195.324-.324.518l-.778.973a9.688 9.688 0 0 0-.39-1.88l-.842-2.529c.454-.064.843 0 1.232.13Zm-19.45 9.27c-.388-1.101.065-2.268 1.103-2.787l.907 2.204a9.393 9.393 0 0 0 1.297 2.205l-1.362-.13c-.907-.065-1.685-.648-1.945-1.491Zm9.206 3.437c-2.658-.26-4.992-1.945-5.964-4.473l-1.686-4.28c-.13-.324 0-.713.325-.842l13.679-4.927a.716.716 0 0 1 .518 0c.13.065.26.194.325.389l1.426 4.279c.778 2.398.26 4.991-1.361 6.872l-2.01 2.334.583 1.555-2.334.973-.648-1.621-2.853-.26Zm-4.149 9.4 1.491-.583 1.621 4.927 1.232-.389-1.686-5.057 2.594-1.037 2.204 6.548-5.252 2.204-2.204-6.613ZM32.48 11.346v.648h1.296v-.648a3.21 3.21 0 0 1 3.242-3.242V6.808a3.21 3.21 0 0 1-3.242-3.242v-.648H32.48v.648a3.21 3.21 0 0 1-3.242 3.242v1.296a3.21 3.21 0 0 1 3.242 3.242Zm.648-5.446c.39.649.908 1.167 1.556 1.556a4.472 4.472 0 0 0-1.556 1.556 4.47 4.47 0 0 0-1.556-1.556A4.467 4.467 0 0 0 33.128 5.9Z"/><path d="M3.954 24.31v.65h1.297v-.65a3.21 3.21 0 0 1 3.242-3.24v-1.297A3.21 3.21 0 0 1 5.25 16.53v-.648H3.954v.648a3.21 3.21 0 0 1-3.241 3.242v1.296a3.21 3.21 0 0 1 3.241 3.242Zm.649-5.445c.389.648.907 1.167 1.556 1.556a4.47 4.47 0 0 0-1.556 1.556 4.47 4.47 0 0 0-1.556-1.556 4.468 4.468 0 0 0 1.556-1.556ZM36.37 16.531v-.648h-1.296v.648a3.21 3.21 0 0 1-3.242 3.242v1.296a3.21 3.21 0 0 1 3.242 3.242v.648h1.296v-.648a3.21 3.21 0 0 1 3.242-3.242v-1.296a3.21 3.21 0 0 1-3.242-3.242Zm-.648 5.446a4.471 4.471 0 0 0-1.556-1.556 4.469 4.469 0 0 0 1.556-1.556 4.468 4.468 0 0 0 1.556 1.556 4.47 4.47 0 0 0-1.556 1.556ZM19.708 11.54l.908.908c3.565-3.565.259-9.011.064-9.206l-1.102.713c.065 0 2.982 4.733.13 7.586Z"/></g><defs><clipPath id="a"><path fill="#fff" d="M0 0h40v40H0z"/></clipPath></defs></svg>
